wifi-lock.svg

<svg fill="currentColor" viewBox="0 0 24 24"><path d="M12 6C8.62 6 5.5 7.12 3 9L1.2 6.6C4.21 4.34 7.95 3 12 3s7.79 1.34 10.8 3.6L21 9c-2.5-1.88-5.62-3-9-3m5.4 4.29A11.98 11.98 0 0 0 4.8 11.4l1.8 2.4C8.1 12.67 9.97 12 12 12c.97 0 1.9.16 2.78.44.56-.99 1.49-1.76 2.62-2.15m-9 5.91L12 21l1-1.33V17.2c0-.7.27-1.39.7-1.94A6 6 0 0 0 12 15c-1.35 0-2.6.45-3.6 1.2M23 17.3v3.5c0 .6-.6 1.2-1.3 1.2h-5.5c-.6 0-1.2-.6-1.2-1.3v-3.5c0-.6.6-1.2 1.2-1.2v-1.5c0-1.4 1.4-2.5 2.8-2.5s2.8 1.1 2.8 2.5V16c.6 0 1.2.6 1.2 1.3m-2.5-2.8c0-.8-.7-1.3-1.5-1.3s-1.5.5-1.5 1.3V16h3z"/></svg>

<svg  viewBox="0 0 24 24" fill="currentColor"><path  d="M12 6C8.62 6 5.5 7.12 3 9L1.2 6.6C4.21 4.34 7.95 3 12 3S19.79 4.34 22.8 6.6L21 9C18.5 7.12 15.38 6 12 6M17.4 10.29C15.77 9.47 13.94 9 12 9C9.3 9 6.81 9.89 4.8 11.4L6.6 13.8C8.1 12.67 9.97 12 12 12C12.97 12 13.9 12.16 14.78 12.44C15.34 11.45 16.27 10.68 17.4 10.29M8.4 16.2L12 21L13 19.67V17.2C13 16.5 13.27 15.81 13.7 15.26C13.16 15.1 12.59 15 12 15C10.65 15 9.4 15.45 8.4 16.2M23 17.3V20.8C23 21.4 22.4 22 21.7 22H16.2C15.6 22 15 21.4 15 20.7V17.2C15 16.6 15.6 16 16.2 16V14.5C16.2 13.1 17.6 12 19 12S21.8 13.1 21.8 14.5V16C22.4 16 23 16.6 23 17.3M20.5 14.5C20.5 13.7 19.8 13.2 19 13.2S17.5 13.7 17.5 14.5V16H20.5V14.5Z"/></svg>
